client/filepreviewer/pdfjs/web/images/pages_viewButton.svg

<svg width="16" height="16" viewBox="0 0 16 16" fill="none" xmlns="http://www.w3.org/2000/svg">
  <path fill-rule="evenodd" clip-rule="evenodd" d="M3 7H5C5.53043 7 6.03914 6.78929 6.41421 6.41421C6.78929 6.03914 7 5.53043 7 5V3C7 2.46957 6.78929 1.96086 6.41421 1.58579C6.03914 1.21071 5.53043 1 5 1H3C2.46957 1 1.96086 1.21071 1.58579 1.58579C1.21071 1.96086 1 2.46957 1 3V5C1 5.53043 1.21071 6.03914 1.58579 6.41421C1.96086 6.78929 2.46957 7 3 7ZM11 7H13C13.5304 7 14.0391 6.78929 14.4142 6.41421C14.7893 6.03914 15 5.53043 15 5V3C15 2.46957 14.7893 1.96086 14.4142 1.58579C14.0391 1.21071 13.5304 1 13 1H11C10.4696 1 9.96086 1.21071 9.58579 1.58579C9.21071 1.96086 9 2.46957 9 3V5C9 5.53043 9.21071 6.03914 9.58579 6.41421C9.96086 6.78929 10.4696 7 11 7ZM5 15H3C2.46957 15 1.96086 14.7893 1.58579 14.4142C1.21071 14.0391 1 13.5304 1 13V11C1 10.4696 1.21071 9.96086 1.58579 9.58579C1.96086 9.21071 2.46957 9 3 9H5C5.53043 9 6.03914 9.21071 6.41421 9.58579C6.78929 9.96086 7 10.4696 7 11V13C7 13.5304 6.78929 14.0391 6.41421 14.4142C6.03914 14.7893 5.53043 15 5 15ZM11 15H13C13.5304 15 14.0391 14.7893 14.4142 14.4142C14.7893 14.0391 15 13.5304 15 13V11C15 10.4696 14.7893 9.96086 14.4142 9.58579C14.0391 9.21071 13.5304 9 13 9H11C10.4696 9 9.96086 9.21071 9.58579 9.58579C9.21071 9.96086 9 10.4696 9 11V13C9 13.5304 9.21071 14.0391 9.58579 14.4142C9.96086 14.7893 10.4696 15 11 15Z" fill="black"/>
</svg>

<svg xmlns="http://www.w3.org/2000/svg" width="16" height="16" fill="none" viewBox="0 0 16 16"><path fill="#000" fill-rule="evenodd" d="M3 7h2a2 2 0 0 0 2-2V3a2 2 0 0 0-2-2H3a2 2 0 0 0-2 2v2a2 2 0 0 0 2 2m8 0h2a2 2 0 0 0 2-2V3a2 2 0 0 0-2-2h-2a2 2 0 0 0-2 2v2a2 2 0 0 0 2 2m-6 8H3a2 2 0 0 1-2-2v-2a2 2 0 0 1 2-2h2a2 2 0 0 1 2 2v2a2 2 0 0 1-2 2m6 0h2a2 2 0 0 0 2-2v-2a2 2 0 0 0-2-2h-2a2 2 0 0 0-2 2v2a2 2 0 0 0 2 2" clip-rule="evenodd"/></svg>
